source/images/social/dribbble.svg

<svg xmlns="http://www.w3.org/2000/svg" width="430.117" height="430.118" viewBox="0 0 430.117 430.118">
  <path d="M215.05 0C96.274.01 0 96.29 0 215.068c0 118.758 96.274 215.05 215.05 215.05 118.776 0 215.054-96.292 215.067-215.05C430.104 96.288 333.827.008 215.05 0zm131.77 111.506c20.982 26.645 34.12 59.638 35.777 95.668-24.278-5.153-47.217-7.66-68.602-7.66v-.006h-.158c-17.217 0-33.375 1.563-48.604 4.264-3.7-9.07-7.453-17.784-11.233-26.13 33.916-14.875 66.47-36.057 92.82-66.136zM215.05 47.28c39.576 0 75.882 13.836 104.626 36.87-21.996 26.334-51.03 45.406-82.393 58.873-22.038-42.615-43.333-73.1-57.89-91.74 11.523-2.556 23.417-4.003 35.657-4.003zm-74.11 17.49c11.647 13.756 34.964 44.013 59.868 91.253-50.65 15.077-101.65 18.62-132.51 18.61-.88 0-1.75 0-2.604-.01h-.028c-5.197 0-9.666-.08-13.397-.195 12.038-48.174 45.04-88.07 88.67-109.658zM47.267 215.068c0-.79.028-1.59.075-2.417 4.792.178 10.936.33 18.33.33h.043c33.727-.22 92.614-3.038 152.292-21.88 3.253 7.114 6.473 14.52 9.656 22.21-39.852 13.328-71.24 34.563-94.456 55.71-22.35 20.357-37.45 40.52-46.273 53.98-24.688-29.23-39.65-66.796-39.664-107.932zm167.784 167.79c-37.34 0-71.754-12.348-99.673-33.07 5.934-9.772 18.657-28.534 38.917-47.92 20.845-19.976 49.62-40.54 87.19-52.776 12.77 35.797 24.325 76.718 33.127 122.78-18.542 7.062-38.578 10.987-59.56 10.987zm94.96-29.793c-8.512-41.66-19.214-79.224-30.965-112.748 10.897-1.563 22.336-2.445 34.41-2.445H313.944c20.012 0 42.003 2.487 65.852 7.906-8.256 44.365-33.953 82.574-69.786 107.287z"/>
</svg>

<?xml version="1.0" encoding="iso-8859-1"?>
<svg version="1.1" id="Capa_1" xmlns="http://www.w3.org/2000/svg" xmlns:xlink="http://www.w3.org/1999/xlink" x="0px" y="0px"
	 width="430.117px" height="430.118px" viewBox="0 0 430.117 430.118" style="enable-background:new 0 0 430.117 430.118;"
	 xml:space="preserve">
	<path id="Dribbble" d="M215.05,0C96.274,0.009,0,96.289,0,215.068c0,118.758,96.274,215.049,215.05,215.049
		c118.776,0,215.054-96.291,215.067-215.049C430.104,96.289,333.826,0.009,215.05,0z M346.819,111.506
		c20.983,26.645,34.121,59.638,35.778,95.668c-24.278-5.153-47.217-7.661-68.602-7.661v-0.005h-0.158
		c-17.217,0-33.375,1.563-48.604,4.264c-3.701-9.071-7.453-17.784-11.233-26.129C287.916,162.767,320.47,141.585,346.819,111.506z
		 M215.05,47.28c39.576,0,75.882,13.836,104.626,36.87c-21.996,26.334-51.029,45.406-82.393,58.873
		c-22.038-42.615-43.333-73.101-57.89-91.739C190.916,48.727,202.81,47.28,215.05,47.28z M140.941,64.77
		c11.646,13.756,34.963,44.013,59.867,91.253c-50.649,15.077-101.651,18.619-132.51,18.61c-0.88,0-1.75,0-2.604-0.009h-0.028
		c-5.197,0-9.666-0.082-13.397-0.196C64.308,126.254,97.311,86.357,140.941,64.77z M47.266,215.068c0-0.789,0.028-1.591,0.075-2.417
		c4.791,0.177,10.935,0.329,18.33,0.329h0.042c33.727-0.22,92.614-3.038,152.292-21.879c3.253,7.113,6.473,14.519,9.656,22.208
		c-39.853,13.329-71.241,34.564-94.457,55.711C110.854,289.377,95.754,309.54,86.931,323
		C62.242,293.769,47.279,256.204,47.266,215.068z M215.05,382.859c-37.339,0-71.754-12.349-99.673-33.07
		c5.934-9.773,18.657-28.535,38.917-47.922c20.845-19.975,49.62-40.538,87.19-52.775c12.77,35.797,24.325,76.718,33.127,122.781
		C256.068,378.934,236.032,382.859,215.05,382.859z M310.011,353.065c-8.513-41.659-19.215-79.224-30.966-112.748
		c10.897-1.563,22.336-2.445,34.41-2.445h0.434h0.028h0.028c20.012,0,42.003,2.487,65.852,7.906
		C371.541,290.143,345.844,328.352,310.011,353.065z"/>
</svg>
